; generated by Slic3r 1.2.9 on 2016-05-14 at 12:00:50

; external perimeters extrusion width = 0.40mm
; perimeters extrusion width = 0.48mm
; infill extrusion width = 0.48mm
; solid infill extrusion width = 0.48mm
; top infill extrusion width = 0.48mm

M107
M190 S70 ; set bed temperature
M104 S250 ; set temperature
G28 ; home all axes
G1 Z5 F5000 ; lift nozzle

M109 S250 ; wait for temperature to be reached
G21 ; set units to millimeters
G90 ; use absolute coordinates
M82 ; use absolute distances for extrusion
G92 E0
G1 Z0.350 F7800.000
G1 E-0.60000 F2400.00000
G92 E0
G1 X64.168 Y82.774 F7800.000
G1 E0.60000 F2400.00000
G1 X66.320 Y81.981 E0.80854 F1800.000
G1 X67.500 Y81.875 E0.91625
G1 X132.500 Y81.875 E6.82667
G1 X134.759 Y82.272 E7.03522
G1 X136.747 Y83.415 E7.24376 F1800.000
G1 X138.226 Y85.168 E7.45230
G1 X139.019 Y87.320 E7.66084
G1 X139.125 Y88.500 E7.76855
G1 X139.125 Y111.500 E9.85993
G1 X138.728 Y113.759 E10.06848
G1 X137.585 Y115.747 E10.27702
G1 X135.832 Y117.226 E10.48556
G1 X133.680 Y118.019 E10.69410
G1 X132.500 Y118.125 E10.80181
G1 X67.500 Y118.125 E16.71223
G1 X65.241 Y117.728 E16.92078
G1 X63.253 Y116.585 E17.12932
G1 X61.774 Y114.832 E17.33786
G1 X60.981 Y112.680 E17.54640
G1 X60.875 Y111.500 E17.65411
G1 X60.875 Y88.500 E19.74549
G1 X61.272 Y86.241 E19.95404
G1 X62.415 Y84.253 E20.16258
G1 X64.122 Y82.813 E20.36566
G1 E19.76566 F2400.00000
G92 E0
G1 X130.900 Y109.900 F7800.000
G1 E0.60000 F2400.00000
G1 X69.100 Y109.900 E6.21949 F1800.000
G1 X69.100 Y90.100 E8.01993
G1 X130.900 Y90.100 E13.63942
G1 X130.900 Y109.840 E15.43441
G1 X131.525 Y110.525 F7800.000
G1 X68.475 Y110.525 E21.16754 F1800.000
G1 X68.475 Y89.475 E23.08163
G1 X131.525 Y89.475 E28.81476
G1 X131.525 Y110.465 E30.72339
G1 X132.150 Y111.150 F7800.000
G1 X67.850 Y111.150 E36.57017 F1800.000
G1 X67.850 Y88.850 E38.59789
G1 X132.150 Y88.850 E44.44467
G1 X132.150 Y111.090 E46.46694
G1 X131.804 Y110.950 F7800.000
G1 X130.522 Y90.783 F7800.000
G1 X130.217 Y90.478 E46.50659 F1800.000
G1 X129.324 Y90.478 E46.58864
G1 X130.522 Y91.676 E46.74432
G1 X130.522 Y92.569 E46.82638
G1 X128.431 Y90.478 E47.09810
G1 X127.538 Y90.478 E47.18015
G1 X130.522 Y93.462 E47.56791
G1 X130.522 Y94.355 E47.64996
G1 X126.645 Y90.478 E48.15376
G1 X125.752 Y90.478 E48.23581
G1 X130.522 Y95.248 E48.85564
G1 X130.522 Y96.141 E48.93769
G1 X124.859 Y90.478 E49.67357
G1 X123.966 Y90.478 E49.75562
G1 X130.522 Y97.034 E50.60753
G1 X130.522 Y97.927 E50.68958
G1 X123.073 Y90.478 E51.65753
G1 X122.180 Y90.478 E51.73958
G1 X130.522 Y98.820 E52.82356
G1 X130.522 Y99.713 E52.90561
G1 X121.287 Y90.478 E54.10564
G1 X120.394 Y90.478 E54.18769
G1 X130.522 Y100.606 E55.50375
G1 X130.522 Y101.499 E55.58580
G1 X119.501 Y90.478 E57.01790
G1 X118.608 Y90.478 E57.09995
G1 X130.522 Y102.392 E58.64808
G1 X130.522 Y103.285 E58.73013
G1 X117.715 Y90.478 E60.39430
G1 X116.822 Y90.478 E60.47636
G1 X130.522 Y104.178 E62.25657
G1 X130.522 Y105.071 E62.33862
G1 X115.929 Y90.478 E64.23486
G1 X115.036 Y90.478 E64.31691
G1 X130.522 Y105.964 E66.32920
G1 X130.522 Y106.857 E66.41125
G1 X114.143 Y90.478 E68.53957
G1 X113.250 Y90.478 E68.62162
G1 X130.522 Y107.750 E70.86598
G1 X130.522 Y108.643 E70.94803
G1 X112.357 Y90.478 E73.30843
G1 X111.464 Y90.478 E73.39048
G1 X130.494 Y109.509 E75.86336
G1 X129.614 Y109.522 E75.94426
G1 X110.571 Y90.478 E78.41879
G1 X109.678 Y90.478 E78.50084
G1 X128.721 Y109.522 E80.97536
G1 X127.828 Y109.522 E81.05742
G1 X108.785 Y90.478 E83.53194
G1 X107.892 Y90.478 E83.61399
G1 X126.935 Y109.522 E86.08852
G1 X126.042 Y109.522 E86.17057
G1 X106.999 Y90.478 E88.64510
G1 X106.106 Y90.478 E88.72715
G1 X125.149 Y109.522 E91.20168
G1 X124.256 Y109.522 E91.28373
G1 X105.213 Y90.478 E93.75825
G1 X104.320 Y90.478 E93.84030
G1 X123.363 Y109.522 E96.31483
G1 X122.470 Y109.522 E96.39688
G1 X103.427 Y90.478 E98.87141
G1 X102.534 Y90.478 E98.95346
G1 X121.577 Y109.522 E101.42799
G1 X120.684 Y109.522 E101.51004
G1 X101.641 Y90.478 E103.98456
G1 X100.748 Y90.478 E104.06662
G1 X119.791 Y109.522 E106.54114
G1 X118.898 Y109.522 E106.62319
G1 X99.855 Y90.478 E109.09772
G1 X98.962 Y90.478 E109.17977
G1 X118.005 Y109.522 E111.65430
G1 X117.112 Y109.522 E111.73635
G1 X98.069 Y90.478 E114.21088
G1 X97.176 Y90.478 E114.29293
G1 X116.219 Y109.522 E116.76745
G1 X115.326 Y109.522 E116.84950
G1 X96.283 Y90.478 E119.32403
G1 X95.390 Y90.478 E119.40608
G1 X114.433 Y109.522 E121.88061
G1 X113.540 Y109.522 E121.96266
G1 X94.497 Y90.478 E124.43719
G1 X93.604 Y90.478 E124.51924
G1 X112.647 Y109.522 E126.99377
G1 X111.754 Y109.522 E127.07582
G1 X92.711 Y90.478 E129.55034
G1 X91.818 Y90.478 E129.63239
G1 X110.861 Y109.522 E132.10692
G1 X109.968 Y109.522 E132.18897
G1 X90.925 Y90.478 E134.66350
G1 X90.032 Y90.478 E134.74555
G1 X109.075 Y109.522 E137.22008
G1 X108.182 Y109.522 E137.30213
G1 X89.139 Y90.478 E139.77665
G1 X88.246 Y90.478 E139.85871
G1 X107.289 Y109.522 E142.33323
G1 X106.396 Y109.522 E142.41528
G1 X87.353 Y90.478 E144.88981
G1 X86.460 Y90.478 E144.97186
G1 X105.503 Y109.522 E147.44639
G1 X104.610 Y109.522 E147.52844
G1 X85.567 Y90.478 E150.00297
G1 X84.674 Y90.478 E150.08502
G1 X103.717 Y109.522 E152.55954
G1 X102.824 Y109.522 E152.64159
G1 X83.781 Y90.478 E155.11612
G1 X82.888 Y90.478 E155.19817
G1 X101.931 Y109.522 E157.67270
G1 X101.038 Y109.522 E157.75475
G1 X81.995 Y90.478 E160.22928
G1 X81.102 Y90.478 E160.31133
G1 X100.145 Y109.522 E162.78586
G1 X99.252 Y109.522 E162.86791
G1 X80.209 Y90.478 E165.34243
G1 X79.316 Y90.478 E165.42448
G1 X98.359 Y109.522 E167.89901
G1 X97.466 Y109.522 E167.98106
G1 X78.423 Y90.478 E170.45559
G1 X77.530 Y90.478 E170.53764
G1 X96.573 Y109.522 E173.01217
G1 X95.680 Y109.522 E173.09422
G1 X76.637 Y90.478 E175.56874
G1 X75.744 Y90.478 E175.65080
G1 X94.787 Y109.522 E178.12532
G1 X93.894 Y109.522 E178.20737
G1 X74.851 Y90.478 E180.68190
G1 X73.958 Y90.478 E180.76395
G1 X93.001 Y109.522 E183.23848
G1 X92.108 Y109.522 E183.32053
G1 X73.065 Y90.478 E185.79506
G1 X72.172 Y90.478 E185.87711
G1 X91.215 Y109.522 E188.35163
G1 X90.322 Y109.522 E188.43369
G1 X71.279 Y90.478 E190.90821
G1 X70.386 Y90.478 E190.99026
G1 X89.429 Y109.522 E193.46479
G1 X88.536 Y109.522 E193.54684
G1 X69.506 Y90.491 E196.01972
G1 X69.478 Y91.357 E196.09930
G1 X87.643 Y109.522 E198.45969
G1 X86.750 Y109.522 E198.54174
G1 X69.478 Y92.250 E200.78610
G1 X69.478 Y93.143 E200.86815
G1 X85.857 Y109.522 E202.99646
G1 X84.964 Y109.522 E203.07851
G1 X69.478 Y94.036 E205.09079
G1 X69.478 Y94.929 E205.17284
G1 X84.071 Y109.522 E207.06908
G1 X83.178 Y109.522 E207.15114
G1 X69.478 Y95.822 E208.93134
G1 X69.478 Y96.715 E209.01339
G1 X82.285 Y109.522 E210.67756
G1 X81.392 Y109.522 E210.75961
G1 X69.478 Y97.608 E212.30774
G1 X69.478 Y98.501 E212.38979
G1 X80.499 Y109.522 E213.82188
G1 X79.606 Y109.522 E213.90393
G1 X69.478 Y99.394 E215.21998
G1 X69.478 Y100.287 E215.30203
G1 X78.713 Y109.522 E216.50205
G1 X77.820 Y109.522 E216.58410
G1 X69.478 Y101.180 E217.66808
G1 X69.478 Y102.073 E217.75013
G1 X76.927 Y109.522 E218.71807
G1 X76.034 Y109.522 E218.80012
G1 X69.478 Y102.966 E219.65203
G1 X69.478 Y103.859 E219.73408
G1 X75.141 Y109.522 E220.46994
G1 X74.248 Y109.522 E220.55200
G1 X69.478 Y104.752 E221.17182
G1 X69.478 Y105.645 E221.25387
G1 X73.355 Y109.522 E221.75767
G1 X72.462 Y109.522 E221.83972
G1 X69.478 Y106.538 E222.22747
G1 X69.478 Y107.431 E222.30952
G1 X71.569 Y109.522 E222.58124
G1 X70.676 Y109.522 E222.66329
G1 X69.478 Y108.324 E222.81897
G1 X69.478 Y109.217 E222.90102
G1 X69.783 Y109.522 E222.94066
G1 Z0.650 F7800.000
G1 X131.504 Y110.504 F7800.000
G1 X68.496 Y110.504 E226.23249 F3600.000
G1 X68.496 Y89.496 E227.33004
G1 X131.504 Y89.496 E230.62188
G1 X131.504 Y110.444 E231.71629
G1 X131.923 Y110.923 F7800.000
G1 X68.077 Y110.923 E235.05189 F3600.000
G1 X68.077 Y89.077 E236.19321
G1 X131.923 Y89.077 E239.52881
G1 X131.923 Y110.863 E240.66699
G1 X132.300 Y111.300 F7800.000
G1 X67.700 Y111.300 E243.37116 F1800.000
G1 X67.700 Y88.700 E244.31721
G1 X132.300 Y88.700 E247.02138
G1 X132.300 Y111.240 E247.96491
G1 X131.954 Y111.100 F7800.000
G1 X131.039 Y110.257 F7800.000
G1 X131.257 Y110.039 E247.98105 F1200.000
G1 X131.257 Y109.445 E248.01219
G1 X130.445 Y110.257 E248.07236
G1 X129.851 Y110.257 E248.10349
G1 X131.257 Y108.851 E248.20770
G1 X131.257 Y108.256 E248.23884
G1 X129.256 Y110.257 E248.38707
G1 X128.662 Y110.257 E248.41821
G1 X131.257 Y107.662 E248.61049
G1 X131.257 Y107.068 E248.64162
G1 X128.068 Y110.257 E248.87793
G1 X127.474 Y110.257 E248.90907
G1 X131.257 Y106.474 E249.18941
G1 X131.257 Y105.880 E249.22055
G1 X126.880 Y110.257 E249.54493
G1 X126.286 Y110.257 E249.57606
G1 X131.257 Y105.286 E249.94448
G1 X131.257 Y104.691 E249.97561
G1 X125.691 Y110.257 E250.38806
G1 X125.097 Y110.257 E250.41920
G1 X131.257 Y104.097 E250.87568
G1 X131.257 Y103.503 E250.90682
G1 X124.503 Y110.257 E251.40733
G1 X123.909 Y110.257 E251.43847
G1 X131.257 Y102.909 E251.98302
G1 X131.257 Y102.315 E252.01416
G1 X123.315 Y110.257 E252.60275
G1 X122.720 Y110.257 E252.63388
G1 X131.257 Y101.720 E253.26650
G1 X131.257 Y101.126 E253.29764
G1 X122.126 Y110.257 E253.97430
G1 X121.532 Y110.257 E254.00543
G1 X131.257 Y100.532 E254.72612
G1 X131.257 Y99.938 E254.75726
G1 X120.938 Y110.257 E255.52199
G1 X120.344 Y110.257 E255.55312
G1 X131.257 Y99.344 E256.36188
G1 X131.257 Y98.750 E256.39302
G1 X119.750 Y110.257 E257.24582
G1 X119.155 Y110.257 E257.27695
G1 X131.257 Y98.155 E258.17378
G1 X131.257 Y97.561 E258.20492
G1 X118.561 Y110.257 E259.14578
G1 X117.967 Y110.257 E259.17692
G1 X131.257 Y96.967 E260.16182
G1 X131.257 Y96.373 E260.19296
G1 X117.373 Y110.257 E261.22189
G1 X116.779 Y110.257 E261.25303
G1 X131.257 Y95.779 E262.32600
G1 X131.257 Y95.184 E262.35713
G1 X116.184 Y110.257 E263.47414
G1 X115.590 Y110.257 E263.50527
G1 X131.257 Y94.590 E264.66631
G1 X131.257 Y93.996 E264.69745
G1 X114.996 Y110.257 E265.90252
G1 X114.402 Y110.257 E265.93366
G1 X131.257 Y93.402 E267.18276
G1 X131.257 Y92.808 E267.21390
G1 X113.808 Y110.257 E268.50704
G1 X113.214 Y110.257 E268.53818
G1 X131.257 Y92.214 E269.87536
G1 X131.257 Y91.619 E269.90649
G1 X112.619 Y110.257 E271.28770
G1 X112.025 Y110.257 E271.31884
G1 X131.257 Y91.025 E272.74409
G1 X131.257 Y90.431 E272.77522
G1 X111.431 Y110.257 E274.24451
G1 X110.837 Y110.257 E274.27564
G1 X131.257 Y89.837 E275.78896
G1 X130.756 Y89.743 E275.81565
G1 X110.243 Y110.257 E277.33589
G1 X109.648 Y110.257 E277.36703
G1 X130.162 Y89.743 E278.88727
G1 X129.568 Y89.743 E278.91841
G1 X109.054 Y110.257 E280.43865
G1 X108.460 Y110.257 E280.46979
G1 X128.973 Y89.743 E281.99003
G1 X128.379 Y89.743 E282.02117
G1 X107.866 Y110.257 E283.54141
G1 X107.272 Y110.257 E283.57255
G1 X127.785 Y89.743 E285.09279
G1 X127.191 Y89.743 E285.12393
G1 X106.677 Y110.257 E286.64417
G1 X106.083 Y110.257 E286.67531
G1 X126.597 Y89.743 E288.19555
G1 X126.003 Y89.743 E288.22669
G1 X105.489 Y110.257 E289.74693
G1 X104.895 Y110.257 E289.77807
G1 X125.408 Y89.743 E291.29831
G1 X124.814 Y89.743 E291.32945
G1 X104.301 Y110.257 E292.84969
G1 X103.707 Y110.257 E292.88083
G1 X124.220 Y89.743 E294.40107
G1 X123.626 Y89.743 E294.43221
G1 X103.112 Y110.257 E295.95245
G1 X102.518 Y110.257 E295.98359
G1 X123.032 Y89.743 E297.50383
G1 X122.437 Y89.743 E297.53497
G1 X101.924 Y110.257 E299.05521
G1 X101.330 Y110.257 E299.08635
G1 X121.843 Y89.743 E300.60659
G1 X121.249 Y89.743 E300.63773
G1 X100.736 Y110.257 E302.15797
G1 X100.141 Y110.257 E302.18911
G1 X120.655 Y89.743 E303.70935
G1 X120.061 Y89.743 E303.74049
G1 X99.547 Y110.257 E305.26073
G1 X98.953 Y110.257 E305.29187
G1 X119.467 Y89.743 E306.81211
G1 X118.872 Y89.743 E306.84325
G1 X98.359 Y110.257 E308.36349
G1 X97.765 Y110.257 E308.39463
G1 X118.278 Y89.743 E309.91487
G1 X117.684 Y89.743 E309.94601
G1 X97.171 Y110.257 E311.46625
G1 X96.576 Y110.257 E311.49739
G1 X117.090 Y89.743 E313.01763
G1 X116.496 Y89.743 E313.04877
G1 X95.982 Y110.257 E314.56901
G1 X95.388 Y110.257 E314.60015
G1 X115.901 Y89.743 E316.12039
G1 X115.307 Y89.743 E316.15153
G1 X94.794 Y110.257 E317.67177
G1 X94.200 Y110.257 E317.70291
G1 X114.713 Y89.743 E319.22315
G1 X114.119 Y89.743 E319.25429
G1 X93.605 Y110.257 E320.77453
G1 X93.011 Y110.257 E320.80567
G1 X113.525 Y89.743 E322.32591
G1 X112.931 Y89.743 E322.35705
G1 X92.417 Y110.257 E323.87729
G1 X91.823 Y110.257 E323.90843
G1 X112.336 Y89.743 E325.42868
G1 X111.742 Y89.743 E325.45981
G1 X91.229 Y110.257 E326.98006
G1 X90.635 Y110.257 E327.01119
G1 X111.148 Y89.743 E328.53144
G1 X110.554 Y89.743 E328.56257
G1 X90.040 Y110.257 E330.08282
G1 X89.446 Y110.257 E330.11395
G1 X109.960 Y89.743 E331.63420
G1 X109.365 Y89.743 E331.66533
G1 X88.852 Y110.257 E333.18558
G1 X88.258 Y110.257 E333.21671
G1 X108.771 Y89.743 E334.73696
G1 X108.177 Y89.743 E334.76809
G1 X87.664 Y110.257 E336.28834
G1 X87.069 Y110.257 E336.31947
G1 X107.583 Y89.743 E337.83972
G1 X106.989 Y89.743 E337.87085
G1 X86.475 Y110.257 E339.39110
G1 X85.881 Y110.257 E339.42223
G1 X106.395 Y89.743 E340.94248
G1 X105.800 Y89.743 E340.97361
G1 X85.287 Y110.257 E342.49386
G1 X84.693 Y110.257 E342.52499
G1 X105.206 Y89.743 E344.04524
G1 X104.612 Y89.743 E344.07637
G1 X84.099 Y110.257 E345.59662
G1 X83.504 Y110.257 E345.62775
G1 X104.018 Y89.743 E347.14800
G1 X103.424 Y89.743 E347.17913
G1 X82.910 Y110.257 E348.69938
G1 X82.316 Y110.257 E348.73051
G1 X102.829 Y89.743 E350.25076
G1 X102.235 Y89.743 E350.28189
G1 X81.722 Y110.257 E351.80214
G1 X81.128 Y110.257 E351.83327
G1 X101.641 Y89.743 E353.35352
G1 X101.047 Y89.743 E353.38465
G1 X80.533 Y110.257 E354.90490
G1 X79.939 Y110.257 E354.93603
G1 X100.453 Y89.743 E356.45628
G1 X99.859 Y89.743 E356.48741
G1 X79.345 Y110.257 E358.00766
G1 X78.751 Y110.257 E358.03879
G1 X99.264 Y89.743 E359.55904
G1 X98.670 Y89.743 E359.59017
G1 X78.157 Y110.257 E361.11042
G1 X77.563 Y110.257 E361.14155
G1 X98.076 Y89.743 E362.66180
G1 X97.482 Y89.743 E362.69293
G1 X76.968 Y110.257 E364.21318
G1 X76.374 Y110.257 E364.24431
G1 X96.888 Y89.743 E365.76456
G1 X96.293 Y89.743 E365.79569
G1 X75.780 Y110.257 E367.31594
G1 X75.186 Y110.257 E367.34707
G1 X95.699 Y89.743 E368.86732
G1 X95.105 Y89.743 E368.89845
G1 X74.592 Y110.257 E370.41870
G1 X73.997 Y110.257 E370.44983
G1 X94.511 Y89.743 E371.97008
G1 X93.917 Y89.743 E372.00121
G1 X73.403 Y110.257 E373.52146
G1 X72.809 Y110.257 E373.55259
G1 X93.322 Y89.743 E375.07284
G1 X92.728 Y89.743 E375.10397
G1 X72.215 Y110.257 E376.62422
G1 X71.621 Y110.257 E376.65535
G1 X92.134 Y89.743 E378.17560
G1 X91.540 Y89.743 E378.20673
G1 X71.027 Y110.257 E379.72698
G1 X70.432 Y110.257 E379.75811
G1 X90.946 Y89.743 E381.27836
G1 X90.352 Y89.743 E381.30949
G1 X69.838 Y110.257 E382.82974
G1 X69.244 Y110.257 E382.86087
G1 X89.757 Y89.743 E384.38112
G1 X89.163 Y89.743 E384.41225
G1 X68.743 Y110.163 E385.92557
G1 X68.743 Y109.569 E385.95671
G1 X88.569 Y89.743 E387.42599
G1 X87.975 Y89.743 E387.45712
G1 X68.743 Y108.975 E388.88237
G1 X68.743 Y108.381 E388.91350
G1 X87.381 Y89.743 E390.29472
G1 X86.786 Y89.743 E390.32585
G1 X68.743 Y107.786 E391.66303
G1 X68.743 Y107.192 E391.69417
G1 X86.192 Y89.743 E392.98731
G1 X85.598 Y89.743 E393.01844
G1 X68.743 Y106.598 E394.26755
G1 X68.743 Y106.004 E394.29869
G1 X85.004 Y89.743 E395.50376
G1 X84.410 Y89.743 E395.53490
G1 X68.743 Y105.410 E396.69593
G1 X68.743 Y104.816 E396.72707
G1 X83.816 Y89.743 E397.84407
G1 X83.221 Y89.743 E397.87521
G1 X68.743 Y104.221 E398.94818
G1 X68.743 Y103.627 E398.97931
G1 X82.627 Y89.743 E400.00825
G1 X82.033 Y89.743 E400.03938
G1 X68.743 Y103.033 E401.02428
G1 X68.743 Y102.439 E401.05542
G1 X81.439 Y89.743 E401.99628
G1 X80.845 Y89.743 E402.02742
G1 X68.743 Y101.845 E402.92425
G1 X68.743 Y101.250 E402.95539
G1 X80.250 Y89.743 E403.80818
G1 X79.656 Y89.743 E403.83932
G1 X68.743 Y100.656 E404.64808
G1 X68.743 Y100.062 E404.67921
G1 X79.062 Y89.743 E405.44394
G1 X78.468 Y89.743 E405.47507
G1 X68.743 Y99.468 E406.19576
G1 X68.743 Y98.874 E406.22690
G1 X77.874 Y89.743 E406.90356
G1 X77.280 Y89.743 E406.93469
G1 X68.743 Y98.280 E407.56731
G1 X68.743 Y97.685 E407.59845
G1 X76.685 Y89.743 E408.18704
G1 X76.091 Y89.743 E408.21817
G1 X68.743 Y97.091 E408.76273
G1 X68.743 Y96.497 E408.79386
