; generated by Slic3r 1.2.9 on 2016-05-14 at 16:07:40

; external perimeters extrusion width = 0.40mm
; perimeters extrusion width = 0.48mm
; infill extrusion width = 0.48mm
; solid infill extrusion width = 0.48mm
; top infill extrusion width = 0.48mm

M107
M190 S70 ; set bed temperature
M104 S250 ; set temperature
G28 ; home all axes
G1 Z5 F5000 ; lift nozzle

M109 S250 ; wait for temperature to be reached
G21 ; set units to millimeters
G90 ; use absolute coordinates
M82 ; use absolute distances for extrusion
G92 E0
G1 Z0.350 F7800.000
G1 E-0.60000 F2400.00000
G92 E0
G1 X19.261 Y47.277 F7800.000
G1 E0.60000 F2400.00000
G1 X62.000 Y29.865 E4.79642 F1800.000
G1 X64.500 Y29.375 E5.02803
G1 X129.500 Y29.375 E10.93845
G1 X131.781 Y29.780 E11.14907
G1 X191.781 Y51.780 E16.96003 F1800.000
G1 X193.765 Y52.930 E17.16858
G1 X195.238 Y54.688 E17.37712
G1 X196.023 Y56.843 E17.58566
G1 X196.125 Y58.000 E17.69127
G1 X196.125 Y164.000 E27.32980
G1 X195.728 Y166.259 E27.53834
G1 X194.585 Y168.247 E27.74689
G1 X192.832 Y169.726 E27.95543
G1 X190.680 Y170.519 E28.16397
G1 X189.500 Y170.625 E28.27168
G1 X10.500 Y170.625 E44.54807
G1 X8.241 Y170.228 E44.75662
G1 X6.253 Y169.085 E44.96516
G1 X4.774 Y167.332 E45.17370
G1 X3.981 Y165.180 E45.38224
G1 X3.875 Y164.000 E45.48995
G1 X3.875 Y58.000 E55.12849
G1 X4.272 Y55.741 E55.33703
G1 X5.415 Y53.753 E55.54557
G1 X8.000 Y51.865 E55.83666
G1 X19.205 Y47.300 E56.93684
G1 E56.33684 F2400.00000
G92 E0
G1 X12.525 Y60.025 F7800.000
G1 E0.60000 F2400.00000
G1 X84.475 Y60.025 E7.14236 F1800.000
G1 X84.475 Y147.256 E15.07423
G1 X85.525 Y147.256 E15.16973
G1 X85.525 Y60.025 E23.10159
G1 X187.475 Y60.025 E32.37184
G1 X187.475 Y161.975 E41.64209
G1 X85.525 Y161.975 E50.91234
G1 X85.525 Y154.744 E51.56984
G1 X84.475 Y154.744 E51.66534
G1 X84.475 Y161.975 E52.32284
G1 X12.525 Y161.975 E58.86520
G1 X12.525 Y60.085 E68.13000
G1 X13.150 Y60.650 F7800.000
G1 X83.850 Y60.650 E74.55872 F1800.000
G1 X83.850 Y147.881 E82.49058
G1 X86.150 Y147.881 E82.69972
G1 X86.150 Y60.650 E90.63159
G1 X186.850 Y60.650 E99.78820
G1 X186.850 Y161.350 E108.94481
G1 X86.150 Y161.350 E118.10141
G1 X86.150 Y154.119 E118.75891
G1 X83.850 Y154.119 E118.96805
G1 X83.850 Y161.350 E119.62555
G1 X13.150 Y161.350 E126.05427
G1 X13.150 Y60.710 E135.20543
G1 X13.150 Y60.250 F7800.000
G1 X66.100 Y59.400 F7800.000
G1 X66.100 Y58.600 E135.27821 F1800.000
G1 X127.900 Y58.600 E140.89770
G1 X127.900 Y59.400 E140.97048
G1 X66.160 Y59.400 E146.58452
G1 X65.475 Y58.975 F7800.000
G1 X65.475 Y57.975 E146.67544 F1800.000
G1 X128.525 Y57.975 E152.40858
G1 X128.525 Y58.975 E152.49950
G1 X188.525 Y58.975 E157.95528
G1 X188.525 Y163.025 E167.41652
G1 X11.475 Y163.025 E183.51562
G1 X11.475 Y58.975 E192.97687
G1 X65.415 Y58.975 E197.88161
G1 X64.850 Y58.350 F7800.000
G1 X64.850 Y36.350 E199.88206 F1800.000
G1 X129.150 Y36.350 E205.72883
G1 X129.150 Y37.650 E205.84704
G1 X66.150 Y37.650 E211.57560
G1 X66.150 Y57.350 E213.36692
G1 X129.150 Y57.350 E219.09548
G1 X129.150 Y58.350 E219.18641
G1 X189.150 Y58.350 E224.64218
G1 X189.150 Y163.650 E234.21707
G1 X10.850 Y163.650 E250.42981
G1 X10.850 Y58.350 E260.00470
G1 X64.790 Y58.350 E264.90944
G1 X65.250 Y58.350 F7800.000
G1 E264.30944 F2400.00000
G92 E0
G1 X83.500 Y104.500 F7800.000
G1 E0.60000 F2400.00000
G1 X43.500 Y104.500 E4.23718 F1800.000
G1 X43.086 Y104.414 E4.27565
G1 X43.000 Y104.000 E4.31411
G1 X43.000 Y61.000 E8.22408
G1 E7.62408 F2400.00000
G92 E0
G1 X65.500 Y57.662 F7800.000
G1 E0.60000 F2400.00000
G1 X65.500 Y37.338 E4.51840 F1800.000
G1 X65.558 Y37.058 E4.57346
G1 X65.838 Y37.000 E4.62851
G1 X128.838 Y37.000 E16.77418
G1 E16.17418 F2400.00000
G92 E0
G1 X127.588 Y59.000 F7800.000
G1 E0.60000 F2400.00000
G1 X66.412 Y59.000 E6.16266 F1800.000
G1 X65.787 Y59.500 F7800.000
G1 X12.213 Y59.500 E16.49123 F1800.000
G1 X12.036 Y59.536 E16.52592
G1 X12.000 Y59.713 E16.56060
G1 X12.000 Y162.287 E36.33581
G1 X12.036 Y162.464 E36.37050
G1 X12.213 Y162.500 E36.40519
G1 X84.787 Y162.500 E50.39674
G1 X85.638 Y162.287 E50.56579
G1 X85.000 Y155.056 F7800.000
G1 X85.000 Y162.447 E51.99057 F1800.000
G1 X85.213 Y162.500 E52.03283
G1 X187.787 Y162.500 E71.80804
G1 X187.964 Y162.464 E71.84273
G1 X188.000 Y162.287 E71.87741
G1 X188.000 Y59.713 E91.65262
G1 X187.964 Y59.536 E91.68731
G1 X187.787 Y59.500 E91.72199
G1 X128.213 Y59.500 E103.20730
G1 X85.000 Y59.713 F7800.000
G1 X85.000 Y146.944 E120.02440 F1800.000
G1 Z0.650 F7800.000
G1 X84.496 Y60.004 F7800.000
G1 X84.496 Y147.010 E124.57005 F3600.000
G1 X85.504 Y147.010 E124.62270
G1 X85.504 Y60.004 E129.16835
G1 X187.496 Y60.004 E134.49693
G1 X187.496 Y161.996 E139.82550
G1 X85.504 Y161.996 E145.15408
G1 X85.504 Y154.990 E145.52014
G1 X84.496 Y154.990 E145.57279
G1 X84.496 Y161.996 E145.93885
G1 X12.504 Y161.996 E149.70007
G1 X12.504 Y60.004 E155.02865
G1 X84.436 Y60.004 E158.78674
G1 X84.077 Y60.423 F7800.000
G1 X84.077 Y147.429 E163.33239 F3600.000
G1 X85.923 Y147.429 E163.42881
G1 X85.923 Y60.423 E167.97446
G1 X187.077 Y60.423 E173.25927
G1 X187.077 Y161.577 E178.54408
G1 X85.923 Y161.577 E183.82888
G1 X85.923 Y154.571 E184.19494
G1 X84.077 Y154.571 E184.29136
G1 X84.077 Y161.577 E184.65742
G1 X12.923 Y161.577 E188.37488
G1 X12.923 Y60.423 E193.65969
G1 X84.017 Y60.423 E197.37401
G1 X86.300 Y60.800 F7800.000
G1 X186.700 Y60.800 E201.57679 F1800.000
G1 X186.700 Y161.200 E205.77956
G1 X86.300 Y161.200 E209.98234
G1 X86.300 Y154.193 E210.27563
G1 X83.700 Y154.193 E210.38447
G1 X83.700 Y161.200 E210.67777
G1 X13.300 Y161.200 E213.62474
G1 X13.300 Y60.800 E217.82751
G1 X42.700 Y60.800 E219.05820
G1 X42.700 Y104.800 E220.90006
G1 X83.700 Y104.800 E222.61633
G1 X83.700 Y147.807 E224.41660
G1 X86.300 Y147.807 E224.52544
G1 X86.300 Y60.860 E228.16505
G1 X86.300 Y60.400 F7800.000
G1 X83.700 Y60.800 F7800.000
G1 X83.700 Y104.200 E229.98178 F1800.000
G1 X43.300 Y104.200 E231.67294
G1 X43.300 Y60.800 E233.48968
G1 X83.640 Y60.800 E235.17832
G1 X84.100 Y60.800 F7800.000
G1 X65.496 Y58.996 F7800.000
G1 X65.496 Y57.996 E235.23057 F3600.000
G1 X128.504 Y57.996 E238.52240
G1 X128.504 Y58.996 E238.57465
G1 X188.504 Y58.996 E241.70934
G1 X188.504 Y163.004 E247.14321
G1 X11.496 Y163.004 E256.39097
G1 X11.496 Y58.996 E261.82484
G1 X65.436 Y58.996 E264.64293
G1 X65.077 Y58.577 F7800.000
G1 X65.077 Y36.577 E265.79232 F3600.000
G1 X128.923 Y36.577 E269.12792
G1 X128.923 Y37.423 E269.17209
G1 X65.923 Y37.423 E272.46352
G1 X65.923 Y57.577 E273.51649
G1 X128.923 Y57.577 E276.80792
G1 X128.923 Y58.577 E276.86017
G1 X188.923 Y58.577 E279.99486
G1 X188.923 Y163.423 E285.47250
G1 X11.077 Y163.423 E294.76402
G1 X11.077 Y58.577 E300.24167
G1 X65.017 Y58.577 E303.05976
G1 X64.700 Y58.200 F7800.000
G1 X64.700 Y36.200 E303.98068 F1800.000
G1 X129.300 Y36.200 E306.68486
G1 X129.300 Y37.800 E306.75184
G1 X66.300 Y37.800 E309.38903
G1 X66.300 Y57.200 E310.20112
G1 X129.300 Y57.200 E312.83832
G1 X129.300 Y58.200 E312.88018
G1 X189.300 Y58.200 E315.39180
G1 X189.300 Y163.800 E319.81225
G1 X10.700 Y163.800 E327.28850
G1 X10.700 Y58.200 E331.70895
G1 X64.640 Y58.200 E333.96690
G1 X65.100 Y58.200 F7800.000
G1 X65.500 Y57.787 F7800.000
G1 X65.500 Y37.213 E336.28180 F1200.000
G1 X65.537 Y37.037 E336.30211
G1 X65.713 Y37.000 E336.32241
G1 X128.713 Y37.000 E343.41114
G1 E342.81114 F2400.00000
G92 E0
G1 X128.294 Y59.500 F7800.000
G1 E0.60000 F2400.00000
G1 X187.706 Y59.500 E7.28491 F1200.000
G1 X187.949 Y59.551 E7.31294
G1 X188.000 Y59.794 E7.34097
G1 X188.000 Y162.206 E18.86422
G1 X187.949 Y162.449 E18.89225
G1 X187.706 Y162.500 E18.92028
G1 X85.294 Y162.500 E30.44353
G1 X85.000 Y162.426 E30.47768
G1 X85.000 Y155.199 E31.29091
G1 X85.813 Y162.223 F7800.000
G1 X84.706 Y162.500 E31.41932 F1200.000
G1 X12.294 Y162.500 E39.56699
G1 X12.051 Y162.449 E39.59502
G1 X12.000 Y162.206 E39.62305
G1 X12.000 Y59.794 E51.14630
G1 X12.051 Y59.551 E51.17433
G1 X12.294 Y59.500 E51.20236
G1 X65.706 Y59.500 E57.21215
G1 X65.961 Y58.243 F7800.000
G1 X65.743 Y58.461 E57.22839 F1200.000
G1 X65.953 Y58.850 E57.25166
G1 X66.559 Y58.243 E57.29688
G1 X67.157 Y58.243 E57.32841
G1 X65.953 Y59.447 E57.41821
G1 X66.241 Y59.757 E57.44052
G1 X67.755 Y58.243 E57.55339
G1 X68.353 Y58.243 E57.58492
G1 X66.839 Y59.757 E57.69779
G1 X67.437 Y59.757 E57.72933
G1 X68.951 Y58.243 E57.84219
G1 X69.549 Y58.243 E57.87373
G1 X68.035 Y59.757 E57.98659
G1 X68.633 Y59.757 E58.01813
G1 X70.147 Y58.243 E58.13099
G1 X70.745 Y58.243 E58.16253
G1 X69.231 Y59.757 E58.27539
G1 X69.829 Y59.757 E58.30693
G1 X71.342 Y58.243 E58.41979
G1 X71.940 Y58.243 E58.45133
G1 X70.427 Y59.757 E58.56419
G1 X71.025 Y59.757 E58.59573
G1 X72.538 Y58.243 E58.70859
G1 X73.136 Y58.243 E58.74013
G1 X71.623 Y59.757 E58.85300
G1 X72.221 Y59.757 E58.88453
G1 X73.734 Y58.243 E58.99740
G1 X74.332 Y58.243 E59.02893
G1 X72.819 Y59.757 E59.14180
G1 X73.417 Y59.757 E59.17333
G1 X74.930 Y58.243 E59.28620
G1 X75.528 Y58.243 E59.31773
G1 X74.015 Y59.757 E59.43060
G1 X74.613 Y59.757 E59.46213
G1 X76.126 Y58.243 E59.57500
G1 X76.724 Y58.243 E59.60653
G1 X75.211 Y59.757 E59.71940
G1 X75.809 Y59.757 E59.75093
G1 X77.322 Y58.243 E59.86380
G1 X77.920 Y58.243 E59.89533
G1 X76.406 Y59.757 E60.00820
G1 X77.004 Y59.757 E60.03973
G1 X78.518 Y58.243 E60.15260
G1 X79.116 Y58.243 E60.18413
G1 X77.602 Y59.757 E60.29700
G1 X78.200 Y59.757 E60.32853
G1 X79.714 Y58.243 E60.44140
G1 X80.312 Y58.243 E60.47293
G1 X78.798 Y59.757 E60.58580
G1 X79.396 Y59.757 E60.61733
G1 X80.910 Y58.243 E60.73020
G1 X81.508 Y58.243 E60.76173
G1 X79.994 Y59.757 E60.87460
G1 X80.592 Y59.757 E60.90613
G1 X82.105 Y58.243 E61.01900
G1 X82.703 Y58.243 E61.05053
G1 X81.190 Y59.757 E61.16340
G1 X81.788 Y59.757 E61.19493
G1 X83.301 Y58.243 E61.30780
G1 X83.899 Y58.243 E61.33933
G1 X82.386 Y59.757 E61.45220
G1 X82.984 Y59.757 E61.48373
G1 X84.497 Y58.243 E61.59660
G1 X85.095 Y58.243 E61.62814
G1 X83.582 Y59.757 E61.74100
G1 X84.389 Y59.547 E61.78499
G1 X85.693 Y58.243 E61.88224
G1 X86.291 Y58.243 E61.91377
G1 X84.987 Y59.547 E62.01102
G1 X85.585 Y59.547 E62.04255
G1 X86.889 Y58.243 E62.13980
G1 X87.487 Y58.243 E62.17133
G1 X85.974 Y59.757 E62.28420
G1 X86.571 Y59.757 E62.31573
G1 X88.085 Y58.243 E62.42860
G1 X88.683 Y58.243 E62.46013
G1 X87.169 Y59.757 E62.57300
G1 X87.767 Y59.757 E62.60453
G1 X89.281 Y58.243 E62.71740
G1 X89.879 Y58.243 E62.74893
G1 X88.365 Y59.757 E62.86180
G1 X88.963 Y59.757 E62.89333
G1 X90.477 Y58.243 E63.00620
G1 X91.075 Y58.243 E63.03774
G1 X89.561 Y59.757 E63.15060
G1 X90.159 Y59.757 E63.18214
G1 X91.673 Y58.243 E63.29500
G1 X92.270 Y58.243 E63.32654
G1 X90.757 Y59.757 E63.43940
G1 X91.355 Y59.757 E63.47094
G1 X92.868 Y58.243 E63.58380
G1 X93.466 Y58.243 E63.61534
G1 X91.953 Y59.757 E63.72820
G1 X92.551 Y59.757 E63.75974
G1 X94.064 Y58.243 E63.87260
G1 X94.662 Y58.243 E63.90414
G1 X93.149 Y59.757 E64.01701
G1 X93.747 Y59.757 E64.04854
G1 X95.260 Y58.243 E64.16141
G1 X95.858 Y58.243 E64.19294
G1 X94.345 Y59.757 E64.30581
G1 X94.943 Y59.757 E64.33734
G1 X96.456 Y58.243 E64.45021
G1 X97.054 Y58.243 E64.48174
G1 X95.541 Y59.757 E64.59461
G1 X96.139 Y59.757 E64.62614
G1 X97.652 Y58.243 E64.73901
G1 X98.250 Y58.243 E64.77054
G1 X96.737 Y59.757 E64.88341
G1 X97.334 Y59.757 E64.91494
G1 X98.848 Y58.243 E65.02781
G1 X99.446 Y58.243 E65.05934
G1 X97.932 Y59.757 E65.17221
G1 X98.530 Y59.757 E65.20374
G1 X100.044 Y58.243 E65.31661
G1 X100.642 Y58.243 E65.34814
G1 X99.128 Y59.757 E65.46101
G1 X99.726 Y59.757 E65.49254
G1 X101.240 Y58.243 E65.60541
G1 X101.838 Y58.243 E65.63694
G1 X100.324 Y59.757 E65.74981
G1 X100.922 Y59.757 E65.78134
G1 X102.436 Y58.243 E65.89421
G1 X103.033 Y58.243 E65.92574
G1 X101.520 Y59.757 E66.03861
G1 X102.118 Y59.757 E66.07014
G1 X103.631 Y58.243 E66.18301
G1 X104.229 Y58.243 E66.21454
G1 X102.716 Y59.757 E66.32741
G1 X103.314 Y59.757 E66.35894
G1 X104.827 Y58.243 E66.47181
G1 X105.425 Y58.243 E66.50334
G1 X103.912 Y59.757 E66.61621
G1 X104.510 Y59.757 E66.64774
G1 X106.023 Y58.243 E66.76061
G1 X106.621 Y58.243 E66.79214
G1 X105.108 Y59.757 E66.90501
G1 X105.706 Y59.757 E66.93655
G1 X107.219 Y58.243 E67.04941
G1 X107.817 Y58.243 E67.08095
G1 X106.304 Y59.757 E67.19381
G1 X106.902 Y59.757 E67.22535
G1 X108.415 Y58.243 E67.33821
G1 X109.013 Y58.243 E67.36975
G1 X107.499 Y59.757 E67.48261
G1 X108.097 Y59.757 E67.51415
G1 X109.611 Y58.243 E67.62701
G1 X110.209 Y58.243 E67.65855
G1 X108.695 Y59.757 E67.77141
G1 X109.293 Y59.757 E67.80295
G1 X110.807 Y58.243 E67.91582
G1 X111.405 Y58.243 E67.94735
G1 X109.891 Y59.757 E68.06022
G1 X110.489 Y59.757 E68.09175
G1 X112.003 Y58.243 E68.20462
G1 X112.601 Y58.243 E68.23615
G1 X111.087 Y59.757 E68.34902
G1 X111.685 Y59.757 E68.38055
G1 X113.198 Y58.243 E68.49342
G1 X113.796 Y58.243 E68.52495
G1 X112.283 Y59.757 E68.63782
G1 X112.881 Y59.757 E68.66935
G1 X114.394 Y58.243 E68.78222
G1 X114.992 Y58.243 E68.81375
G1 X113.479 Y59.757 E68.92662
G1 X114.077 Y59.757 E68.95815
G1 X115.590 Y58.243 E69.07102
G1 X116.188 Y58.243 E69.10255
G1 X114.675 Y59.757 E69.21542
G1 X115.273 Y59.757 E69.24695
G1 X116.786 Y58.243 E69.35982
G1 X117.384 Y58.243 E69.39135
G1 X115.871 Y59.757 E69.50422
G1 X116.469 Y59.757 E69.53575
G1 X117.982 Y58.243 E69.64862
G1 X118.580 Y58.243 E69.68015
G1 X117.067 Y59.757 E69.79302
G1 X117.665 Y59.757 E69.82455
G1 X119.178 Y58.243 E69.93742
G1 X119.776 Y58.243 E69.96895
G1 X118.262 Y59.757 E70.08182
G1 X118.860 Y59.757 E70.11335
G1 X120.374 Y58.243 E70.22622
G1 X120.972 Y58.243 E70.25775
G1 X119.458 Y59.757 E70.37062
G1 X120.056 Y59.757 E70.40215
G1 X121.570 Y58.243 E70.51502
G1 X122.168 Y58.243 E70.54655
G1 X120.654 Y59.757 E70.65942
G1 X121.252 Y59.757 E70.69096
G1 X122.766 Y58.243 E70.80382
G1 X123.364 Y58.243 E70.83536
G1 X121.850 Y59.757 E70.94822
G1 X122.448 Y59.757 E70.97976
G1 X123.961 Y58.243 E71.09262
G1 X124.559 Y58.243 E71.12416
G1 X123.046 Y59.757 E71.23702
G1 X123.644 Y59.757 E71.26856
G1 X125.157 Y58.243 E71.38142
G1 X125.755 Y58.243 E71.41296
G1 X124.242 Y59.757 E71.52583
G1 X124.840 Y59.757 E71.55736
G1 X126.353 Y58.243 E71.67023
G1 X126.951 Y58.243 E71.70176
G1 X125.438 Y59.757 E71.81463
G1 X126.036 Y59.757 E71.84616
G1 X127.549 Y58.243 E71.95903
G1 X128.147 Y58.243 E71.99056
G1 X126.634 Y59.757 E72.10343
G1 X127.232 Y59.757 E72.13496
G1 X128.047 Y58.941 E72.19579
G1 X128.047 Y59.539 E72.22732
G1 X127.830 Y59.757 E72.24356
G1 X85.000 Y59.794 F7800.000
G1 X85.000 Y146.801 E82.03350 F1200.000
G1 X83.889 Y104.500 F7800.000
G1 X43.111 Y104.500 E84.16390 F1200.000
G1 X43.019 Y104.481 E84.16882
G1 X43.000 Y104.389 E84.17375
G1 X43.000 Y60.611 E86.46088
G1 Z0.950 F7800.000
G1 X84.496 Y60.004 F7800.000
G1 X84.496 Y146.803 E90.99572 F3600.000
G1 X85.504 Y146.803 E91.04837
G1 X85.504 Y60.004 E95.58320
G1 X187.496 Y60.004 E100.91178
G1 X187.496 Y161.996 E106.24035
G1 X85.504 Y161.996 E111.56893
G1 X85.504 Y155.197 E111.92417
G1 X84.496 Y155.197 E111.97682
G1 X84.496 Y161.996 E112.33206
G1 X12.504 Y161.996 E116.09329
G1 X12.504 Y60.004 E121.42186
G1 X84.436 Y60.004 E125.17996
G1 X84.077 Y60.423 F7800.000
G1 X84.077 Y147.222 E129.71479 F3600.000
G1 X85.923 Y147.222 E129.81121
G1 X85.923 Y60.423 E134.34605
G1 X187.077 Y60.423 E139.63085
G1 X187.077 Y161.577 E144.91566
G1 X85.923 Y161.577 E150.20047
G1 X85.923 Y154.778 E150.55571
G1 X84.077 Y154.778 E150.65213
G1 X84.077 Y161.577 E151.00737
G1 X12.923 Y161.577 E154.72483
G1 X12.923 Y60.423 E160.00964
G1 X84.017 Y60.423 E163.72396
G1 X86.300 Y60.800 F7800.000
G1 X186.700 Y60.800 E167.92674 F1800.000
G1 X186.700 Y161.200 E172.12951
G1 X86.300 Y161.200 E176.33229
G1 X86.300 Y154.400 E176.61692
G1 X83.700 Y154.400 E176.72575
G1 X83.700 Y161.200 E177.01039
G1 X13.300 Y161.200 E179.95735
G1 X13.300 Y60.800 E184.16013
G1 X42.700 Y60.800 E185.39082
G1 X42.700 Y104.800 E187.23267
G1 X83.700 Y104.800 E188.94895
G1 X83.700 Y147.600 E190.74055
G1 X86.300 Y147.600 E190.84939
G1 X86.300 Y60.860 E194.48033
G1 X86.300 Y60.400 F7800.000
G1 X83.700 Y60.800 F7800.000
G1 X83.700 Y104.200 E196.29707 F1800.000
G1 X43.300 Y104.200 E197.98822
G1 X43.300 Y60.800 E199.80496
G1 X83.640 Y60.800 E201.49361
G1 X84.100 Y60.800 F7800.000
G1 X65.496 Y58.996 F7800.000
G1 X65.496 Y57.996 E201.54585 F3600.000
