; generated by Slic3r 1.2.9 on 2016-05-15 at 08:30:46

; external perimeters extrusion width = 0.40mm
; perimeters extrusion width = 0.48mm
; infill extrusion width = 0.48mm
; solid infill extrusion width = 0.48mm
; top infill extrusion width = 0.48mm

M107
M190 S70 ; set bed temperature
M104 S250 ; set temperature
G28 ; home all axes
G1 Z5 F5000 ; lift nozzle

M109 S250 ; wait for temperature to be reached
G21 ; set units to millimeters
G90 ; use absolute coordinates
M82 ; use absolute distances for extrusion
G92 E0
G1 Z0.350 F7800.000
G1 X9.320 Y40.481 F7800.000
G1 X10.500 Y40.375 E0.10771 F1800.000
G1 X189.500 Y40.375 E16.38410
G1 X191.759 Y40.772 E16.59265
G1 X193.747 Y41.915 E16.80119 F1800.000
G1 X195.226 Y43.668 E17.00973
G1 X196.019 Y45.820 E17.21827
G1 X196.125 Y47.000 E17.32598
G1 X196.125 Y153.000 E26.96452
G1 X195.728 Y155.259 E27.17306
G1 X194.585 Y157.247 E27.38160
G1 X192.832 Y158.726 E27.59014
G1 X190.680 Y159.519 E27.79869
G1 X189.500 Y159.625 E27.90640
G1 X10.500 Y159.625 E44.18279
G1 X8.241 Y159.228 E44.39133
G1 X6.253 Y158.085 E44.59988
G1 X4.774 Y156.332 E44.80842
G1 X3.981 Y154.180 E45.01696
G1 X3.875 Y153.000 E45.12467
G1 X3.875 Y47.000 E54.76320
G1 X4.272 Y44.741 E54.97175
G1 X5.415 Y42.753 E55.18029
G1 X7.168 Y41.274 E55.38883
G1 X9.264 Y40.502 E55.59192
G1 E54.99192 F2400.00000
G92 E0
G1 X12.100 Y48.600 F7800.000
G1 E0.60000 F2400.00000
G1 X187.900 Y48.600 E16.58546 F1800.000
G1 X187.900 Y151.400 E25.93306
G1 X12.100 Y151.400 E41.91852
G1 X12.100 Y48.660 E51.26067
G1 X11.475 Y47.975 F7800.000
G1 X188.525 Y47.975 E67.35977 F1800.000
G1 X188.525 Y152.025 E76.82101
G1 X11.475 Y152.025 E92.92011
G1 X11.475 Y48.035 E102.37590
G1 X10.850 Y47.350 F7800.000
G1 X189.150 Y47.350 E118.58864 F1800.000
G1 X189.150 Y152.650 E128.16353
G1 X10.850 Y152.650 E144.37627
G1 X10.850 Y47.410 E153.94570
G1 X11.196 Y47.550 F7800.000
G1 X13.669 Y151.022 F7800.000
G1 X12.478 Y149.831 E154.09929 F1800.000
G1 X12.478 Y148.944 E154.18008
G1 X14.556 Y151.022 E154.44793
G1 X15.442 Y151.022 E154.52873
G1 X12.478 Y148.058 E154.91085
G1 X12.478 Y147.172 E154.99164
G1 X16.328 Y151.022 E155.48802
G1 X17.214 Y151.022 E155.56882
G1 X12.478 Y146.286 E156.17946
G1 X12.478 Y145.400 E156.26026
G1 X18.100 Y151.022 E156.98516
G1 X18.986 Y151.022 E157.06596
G1 X12.478 Y144.514 E157.90513
G1 X12.478 Y143.628 E157.98593
G1 X19.872 Y151.022 E158.93936
G1 X20.759 Y151.022 E159.02016
G1 X12.478 Y142.741 E160.08785
G1 X12.478 Y141.855 E160.16865
G1 X21.645 Y151.022 E161.35061
G1 X22.531 Y151.022 E161.43141
G1 X12.478 Y140.969 E162.72764
G1 X12.478 Y140.083 E162.80843
G1 X23.417 Y151.022 E164.21892
G1 X24.303 Y151.022 E164.29972
G1 X12.478 Y139.197 E165.82447
G1 X12.478 Y138.311 E165.90527
G1 X25.189 Y151.022 E167.54429
G1 X26.075 Y151.022 E167.62509
G1 X12.478 Y137.425 E169.37837
G1 X12.478 Y136.538 E169.45916
G1 X26.962 Y151.022 E171.32671
G1 X27.848 Y151.022 E171.40751
G1 X12.478 Y135.652 E173.38932
G1 X12.478 Y134.766 E173.47011
G1 X28.734 Y151.022 E175.56619
G1 X29.620 Y151.022 E175.64698
G1 X12.478 Y133.880 E177.85732
G1 X12.478 Y132.994 E177.93812
G1 X30.506 Y151.022 E180.26272
G1 X31.392 Y151.022 E180.34352
G1 X12.478 Y132.108 E182.78238
G1 X12.478 Y131.222 E182.86318
G1 X32.278 Y151.022 E185.41631
G1 X33.165 Y151.022 E185.49711
G1 X12.478 Y130.335 E188.16450
G1 X12.478 Y129.449 E188.24530
G1 X34.051 Y151.022 E191.02695
G1 X34.937 Y151.022 E191.10775
G1 X12.478 Y128.563 E194.00367
G1 X12.478 Y127.677 E194.08447
G1 X35.823 Y151.022 E197.09465
G1 X36.709 Y151.022 E197.17545
G1 X12.478 Y126.791 E200.29990
G1 X12.478 Y125.905 E200.38070
G1 X37.595 Y151.022 E203.61941
G1 X38.481 Y151.022 E203.70021
G1 X12.478 Y125.019 E207.05319
G1 X12.478 Y124.132 E207.13398
G1 X39.368 Y151.022 E210.60122
G1 X40.254 Y151.022 E210.68202
G1 X12.478 Y123.246 E214.26353
G1 X12.478 Y122.360 E214.34432
G1 X41.140 Y151.022 E218.04009
G1 X42.026 Y151.022 E218.12089
G1 X12.478 Y121.474 E221.93092
G1 X12.478 Y120.588 E222.01172
G1 X42.912 Y151.022 E225.93602
G1 X43.798 Y151.022 E226.01681
G1 X12.478 Y119.702 E230.05537
G1 X12.478 Y118.816 E230.13617
G1 X44.684 Y151.022 E234.28900
G1 X45.571 Y151.022 E234.36979
G1 X12.478 Y117.929 E238.63688
G1 X12.478 Y117.043 E238.71768
G1 X46.457 Y151.022 E243.09903
G1 X47.343 Y151.022 E243.17983
G1 X12.478 Y116.157 E247.67545
G1 X12.478 Y115.271 E247.75624
G1 X48.229 Y151.022 E252.36612
G1 X49.115 Y151.022 E252.44692
G1 X12.478 Y114.385 E257.17107
G1 X12.478 Y113.499 E257.25186
G1 X50.001 Y151.022 E262.09027
G1 X50.887 Y151.022 E262.17107
G1 X12.478 Y112.613 E267.12374
G1 X12.478 Y111.726 E267.20454
G1 X51.774 Y151.022 E272.27148
G1 X52.660 Y151.022 E272.35227
G1 X12.478 Y110.840 E277.53347
G1 X12.478 Y109.954 E277.61427
G1 X53.546 Y151.022 E282.90974
G1 X54.432 Y151.022 E282.99053
G1 X12.478 Y109.068 E288.40026
G1 X12.478 Y108.182 E288.48106
G1 X55.318 Y151.022 E294.00505
G1 X56.204 Y151.022 E294.08585
G1 X12.478 Y107.296 E299.72410
G1 X12.478 Y106.410 E299.80490
G1 X57.090 Y151.022 E305.55742
G1 X57.977 Y151.022 E305.63822
G1 X12.478 Y105.523 E311.50500
G1 X12.478 Y104.637 E311.58580
G1 X58.863 Y151.022 E317.56685
G1 X59.749 Y151.022 E317.64765
G1 X12.478 Y103.751 E323.74296
G1 X12.478 Y102.865 E323.82376
G1 X60.635 Y151.022 E330.03333
G1 X61.521 Y151.022 E330.11413
G1 X12.478 Y101.979 E336.43797
G1 X12.478 Y101.093 E336.51877
G1 X62.407 Y151.022 E342.95687
G1 X63.293 Y151.022 E343.03767
G1 X12.478 Y100.207 E349.59004
G1 X12.478 Y99.320 E349.67083
G1 X64.180 Y151.022 E356.33747
G1 X65.066 Y151.022 E356.41826
G1 X12.478 Y98.434 E363.19916
G1 X12.478 Y97.548 E363.27996
G1 X65.952 Y151.022 E370.17512
G1 X66.838 Y151.022 E370.25591
G1 X12.478 Y96.662 E377.26534
G1 X12.478 Y95.776 E377.34613
G1 X67.724 Y151.022 E384.46982
G1 X68.610 Y151.022 E384.55062
G1 X12.478 Y94.890 E391.78857
G1 X12.478 Y94.004 E391.86937
G1 X69.496 Y151.022 E399.22159
G1 X70.383 Y151.022 E399.30238
G1 X12.478 Y93.117 E406.76886
G1 X12.478 Y92.231 E406.84966
G1 X71.269 Y151.022 E414.43040
G1 X72.155 Y151.022 E414.51120
G1 X12.478 Y91.345 E422.20621
G1 X12.478 Y90.459 E422.28701
G1 X73.041 Y151.022 E430.09628
G1 X73.927 Y151.022 E430.17708
G1 X12.478 Y89.573 E438.10061
G1 X12.478 Y88.687 E438.18141
G1 X74.813 Y151.022 E446.21921
G1 X75.699 Y151.022 E446.30001
G1 X12.478 Y87.801 E454.45207
G1 X12.478 Y86.914 E454.53287
G1 X76.586 Y151.022 E462.79920
G1 X77.472 Y151.022 E462.87999
G1 X12.478 Y86.028 E471.26058
G1 X12.478 Y85.142 E471.34138
G1 X78.358 Y151.022 E479.83624
G1 X79.244 Y151.022 E479.91703
G1 X12.478 Y84.256 E488.52615
G1 X12.478 Y83.370 E488.60695
G1 X80.130 Y151.022 E497.33034
G1 X81.016 Y151.022 E497.41113
G1 X12.478 Y82.484 E506.24878
G1 X12.478 Y81.598 E506.32958
G1 X81.902 Y151.022 E515.28149
G1 X82.789 Y151.022 E515.36229
G1 X12.478 Y80.711 E524.42846
G1 X12.478 Y79.825 E524.50926
G1 X83.675 Y151.022 E533.68970
G1 X84.561 Y151.022 E533.77050
G1 X12.478 Y78.939 E543.06520
G1 X12.478 Y78.053 E543.14600
G1 X85.447 Y151.022 E552.55497
G1 X86.333 Y151.022 E552.63576
G1 X12.478 Y77.167 E562.15899
G1 X12.478 Y76.281 E562.23979
G1 X87.219 Y151.022 E571.87729
G1 X88.105 Y151.022 E571.95808
G1 X12.478 Y75.395 E581.70984
G1 X12.478 Y74.508 E581.79064
G1 X88.992 Y151.022 E591.65666
G1 X89.878 Y151.022 E591.73746
G1 X12.478 Y73.622 E601.71775
G1 X12.478 Y72.736 E601.79855
G1 X90.764 Y151.022 E611.89310
G1 X91.650 Y151.022 E611.97389
G1 X12.478 Y71.850 E622.18271
G1 X12.478 Y70.964 E622.26351
G1 X92.536 Y151.022 E632.58659
G1 X93.422 Y151.022 E632.66738
G1 X12.478 Y70.078 E643.10473
G1 X12.478 Y69.192 E643.18552
G1 X94.308 Y151.022 E653.73713
G1 X95.195 Y151.022 E653.81793
G1 X12.478 Y68.305 E664.48380
G1 X12.478 Y67.419 E664.56460
G1 X96.081 Y151.022 E675.34473
G1 X96.967 Y151.022 E675.42553
G1 X12.478 Y66.533 E686.31993
G1 X12.478 Y65.647 E686.40073
G1 X97.853 Y151.022 E697.40939
G1 X98.739 Y151.022 E697.49019
G1 X12.478 Y64.761 E708.61311
G1 X12.478 Y63.875 E708.69391
G1 X99.625 Y151.022 E719.93110
G1 X100.511 Y151.022 E720.01190
G1 X12.478 Y62.989 E731.36335
G1 X12.478 Y62.102 E731.44415
G1 X101.398 Y151.022 E742.90987
G1 X102.284 Y151.022 E742.99067
G1 X12.478 Y61.216 E754.57065
G1 X12.478 Y60.330 E754.65145
G1 X103.170 Y151.022 E766.34570
G1 X104.056 Y151.022 E766.42649
G1 X12.478 Y59.444 E778.23500
G1 X12.478 Y58.558 E778.31580
G1 X104.942 Y151.022 E790.23858
G1 X105.828 Y151.022 E790.31937
G1 X12.478 Y57.672 E802.35641
G1 X12.478 Y56.786 E802.43721
G1 X106.714 Y151.022 E814.58851
G1 X107.601 Y151.022 E814.66931
G1 X12.478 Y55.899 E826.93488
G1 X12.478 Y55.013 E827.01567
G1 X108.487 Y151.022 E839.39550
G1 X109.373 Y151.022 E839.47630
G1 X12.478 Y54.127 E851.97040
G1 X12.478 Y53.241 E852.05119
G1 X110.259 Y151.022 E864.65955
G1 X111.145 Y151.022 E864.74035
G1 X12.478 Y52.355 E877.46297
G1 X12.478 Y51.469 E877.54377
G1 X112.031 Y151.022 E890.38066
G1 X112.917 Y151.022 E890.46145
G1 X12.478 Y50.583 E903.41260
G1 X12.478 Y49.696 E903.49340
G1 X113.804 Y151.022 E916.55882
G1 X114.690 Y151.022 E916.63961
G1 X12.646 Y48.978 E929.79762
G1 X13.533 Y48.978 E929.87842
G1 X115.576 Y151.022 E943.03643
G1 X116.462 Y151.022 E943.11722
G1 X14.419 Y48.978 E956.27523
G1 X15.305 Y48.978 E956.35603
G1 X117.348 Y151.022 E969.51403
G1 X118.234 Y151.022 E969.59483
G1 X16.191 Y48.978 E982.75284
G1 X17.077 Y48.978 E982.83363
G1 X119.120 Y151.022 E995.99164
G1 X120.007 Y151.022 E996.07244
G1 X17.963 Y48.978 E1009.23045
G1 X18.849 Y48.978 E1009.31124
G1 X120.893 Y151.022 E1022.46925
G1 X121.779 Y151.022 E1022.55005
G1 X19.736 Y48.978 E1035.70805
G1 X20.622 Y48.978 E1035.78885
G1 X122.665 Y151.022 E1048.94686
G1 X123.551 Y151.022 E1049.02766
G1 X21.508 Y48.978 E1062.18566
G1 X22.394 Y48.978 E1062.26646
G1 X124.437 Y151.022 E1075.42447
G1 X125.323 Y151.022 E1075.50526
G1 X23.280 Y48.978 E1088.66327
G1 X24.166 Y48.978 E1088.74407
G1 X126.210 Y151.022 E1101.90208
G1 X127.096 Y151.022 E1101.98287
G1 X25.052 Y48.978 E1115.14088
G1 X25.939 Y48.978 E1115.22168
G1 X127.982 Y151.022 E1128.37968
G1 X128.868 Y151.022 E1128.46048
G1 X26.825 Y48.978 E1141.61849
G1 X27.711 Y48.978 E1141.69929
G1 X129.754 Y151.022 E1154.85729
G1 X130.640 Y151.022 E1154.93809
G1 X28.597 Y48.978 E1168.09610
G1 X29.483 Y48.978 E1168.17689
G1 X131.526 Y151.022 E1181.33490
G1 X132.413 Y151.022 E1181.41570
G1 X30.369 Y48.978 E1194.57370
G1 X31.255 Y48.978 E1194.65450
G1 X133.299 Y151.022 E1207.81251
G1 X134.185 Y151.022 E1207.89331
G1 X32.142 Y48.978 E1221.05131
G1 X33.028 Y48.978 E1221.13211
G1 X135.071 Y151.022 E1234.29012
G1 X135.957 Y151.022 E1234.37091
G1 X33.914 Y48.978 E1247.52892
G1 X34.800 Y48.978 E1247.60972
G1 X136.843 Y151.022 E1260.76773
G1 X137.729 Y151.022 E1260.84852
G1 X35.686 Y48.978 E1274.00653
G1 X36.572 Y48.978 E1274.08733
G1 X138.616 Y151.022 E1287.24533
G1 X139.502 Y151.022 E1287.32613
G1 X37.458 Y48.978 E1300.48414
G1 X38.345 Y48.978 E1300.56494
G1 X140.388 Y151.022 E1313.72294
G1 X141.274 Y151.022 E1313.80374
G1 X39.231 Y48.978 E1326.96175
G1 X40.117 Y48.978 E1327.04254
G1 X142.160 Y151.022 E1340.20055
G1 X143.046 Y151.022 E1340.28135
G1 X41.003 Y48.978 E1353.43936
G1 X41.889 Y48.978 E1353.52015
G1 X143.932 Y151.022 E1366.67816
G1 X144.819 Y151.022 E1366.75896
G1 X42.775 Y48.978 E1379.91696
G1 X43.661 Y48.978 E1379.99776
G1 X145.705 Y151.022 E1393.15577
G1 X146.591 Y151.022 E1393.23656
G1 X44.548 Y48.978 E1406.39457
G1 X45.434 Y48.978 E1406.47537
G1 X147.477 Y151.022 E1419.63338
G1 X148.363 Y151.022 E1419.71417
G1 X46.320 Y48.978 E1432.87218
G1 X47.206 Y48.978 E1432.95298
G1 X149.249 Y151.022 E1446.11098
G1 X150.135 Y151.022 E1446.19178
G1 X48.092 Y48.978 E1459.34979
G1 X48.978 Y48.978 E1459.43059
G1 X151.022 Y151.022 E1472.58859
G1 X151.908 Y151.022 E1472.66939
G1 X49.864 Y48.978 E1485.82740
G1 X50.751 Y48.978 E1485.90819
G1 X152.794 Y151.022 E1499.06620
G1 X153.680 Y151.022 E1499.14700
G1 X51.637 Y48.978 E1512.30501
G1 X52.523 Y48.978 E1512.38580
G1 X154.566 Y151.022 E1525.54381
G1 X155.452 Y151.022 E1525.62461
G1 X53.409 Y48.978 E1538.78261
G1 X54.295 Y48.978 E1538.86341
G1 X156.338 Y151.022 E1552.02142
G1 X157.225 Y151.022 E1552.10221
G1 X55.181 Y48.978 E1565.26022
G1 X56.067 Y48.978 E1565.34102
G1 X158.111 Y151.022 E1578.49903
G1 X158.997 Y151.022 E1578.57982
G1 X56.954 Y48.978 E1591.73783
G1 X57.840 Y48.978 E1591.81863
G1 X159.883 Y151.022 E1604.97663
G1 X160.769 Y151.022 E1605.05743
G1 X58.726 Y48.978 E1618.21544
G1 X59.612 Y48.978 E1618.29624
G1 X161.655 Y151.022 E1631.45424
G1 X162.541 Y151.022 E1631.53504
G1 X60.498 Y48.978 E1644.69305
G1 X61.384 Y48.978 E1644.77384
G1 X163.428 Y151.022 E1657.93185
G1 X164.314 Y151.022 E1658.01265
G1 X62.270 Y48.978 E1671.17066
G1 X63.157 Y48.978 E1671.25145
G1 X165.200 Y151.022 E1684.40946
G1 X166.086 Y151.022 E1684.49026
G1 X64.043 Y48.978 E1697.64826
G1 X64.929 Y48.978 E1697.72906
G1 X166.972 Y151.022 E1710.88707
G1 X167.858 Y151.022 E1710.96787
G1 X65.815 Y48.978 E1724.12587
G1 X66.701 Y48.978 E1724.20667
G1 X168.744 Y151.022 E1737.36468
G1 X169.631 Y151.022 E1737.44547
G1 X67.587 Y48.978 E1750.60348
G1 X68.473 Y48.978 E1750.68428
G1 X170.517 Y151.022 E1763.84229
G1 X171.403 Y151.022 E1763.92308
G1 X69.360 Y48.978 E1777.08109
G1 X70.246 Y48.978 E1777.16189
G1 X172.289 Y151.022 E1790.31989
G1 X173.175 Y151.022 E1790.40069
G1 X71.132 Y48.978 E1803.55870
G1 X72.018 Y48.978 E1803.63950
G1 X174.061 Y151.022 E1816.79750
G1 X174.947 Y151.022 E1816.87830
G1 X72.904 Y48.978 E1830.03631
G1 X73.790 Y48.978 E1830.11710
G1 X175.834 Y151.022 E1843.27511
G1 X176.720 Y151.022 E1843.35591
G1 X74.676 Y48.978 E1856.51392
G1 X75.563 Y48.978 E1856.59471
G1 X177.606 Y151.022 E1869.75272
G1 X178.492 Y151.022 E1869.83352
G1 X76.449 Y48.978 E1882.99152
G1 X77.335 Y48.978 E1883.07232
G1 X179.378 Y151.022 E1896.23033
G1 X180.264 Y151.022 E1896.31113
G1 X78.221 Y48.978 E1909.46913
G1 X79.107 Y48.978 E1909.54993
G1 X181.150 Y151.022 E1922.70794
G1 X182.037 Y151.022 E1922.78873
G1 X79.993 Y48.978 E1935.94674
G1 X80.879 Y48.978 E1936.02754
G1 X182.923 Y151.022 E1949.18555
G1 X183.809 Y151.022 E1949.26634
G1 X81.766 Y48.978 E1962.42435
G1 X82.652 Y48.978 E1962.50515
G1 X184.695 Y151.022 E1975.66315
G1 X185.581 Y151.022 E1975.74395
G1 X83.538 Y48.978 E1988.90196
G1 X84.424 Y48.978 E1988.98276
G1 X186.467 Y151.022 E2002.14076
G1 X187.353 Y151.022 E2002.22156
G1 X85.310 Y48.978 E2015.37957
G1 X86.196 Y48.978 E2015.46036
G1 X187.522 Y150.304 E2028.52580
G1 X187.522 Y149.418 E2028.60660
G1 X87.082 Y48.978 E2041.55777
G1 X87.969 Y48.978 E2041.63857
G1 X187.522 Y148.531 E2054.47548
G1 X187.522 Y147.645 E2054.55627
G1 X88.855 Y48.978 E2067.27892
G1 X89.741 Y48.978 E2067.35971
G1 X187.522 Y146.759 E2079.96809
G1 X187.522 Y145.873 E2080.04889
G1 X90.627 Y48.978 E2092.54301
G1 X91.513 Y48.978 E2092.62381
G1 X187.522 Y144.987 E2105.00366
G1 X187.522 Y144.101 E2105.08445
G1 X92.399 Y48.978 E2117.35004
G1 X93.285 Y48.978 E2117.43084
G1 X187.522 Y143.215 E2129.58217
G1 X187.522 Y142.328 E2129.66296
G1 X94.172 Y48.978 E2141.70002
G1 X95.058 Y48.978 E2141.78082
G1 X187.522 Y141.442 E2153.70362
G1 X187.522 Y140.556 E2153.78441
G1 X95.944 Y48.978 E2165.59295
G1 X96.830 Y48.978 E2165.67374
G1 X187.522 Y139.670 E2177.36801
G1 X187.522 Y138.784 E2177.44881
G1 X97.716 Y48.978 E2189.02881
G1 X98.602 Y48.978 E2189.10961
G1 X187.522 Y137.898 E2200.57535
G1 X187.522 Y137.012 E2200.65615
G1 X99.488 Y48.978 E2212.00763
G1 X100.375 Y48.978 E2212.08842
G1 X187.522 Y136.125 E2223.32564
G1 X187.522 Y135.239 E2223.40643
G1 X101.261 Y48.978 E2234.52938
G1 X102.147 Y48.978 E2234.61018
G1 X187.522 Y134.353 E2245.61886
G1 X187.522 Y133.467 E2245.69966
G1 X103.033 Y48.978 E2256.59408
G1 X103.919 Y48.978 E2256.67488
G1 X187.522 Y132.581 E2267.45504
G1 X187.522 Y131.695 E2267.53583
G1 X104.805 Y48.978 E2278.20173
G1 X105.691 Y48.978 E2278.28252
G1 X187.522 Y130.809 E2288.83415
G1 X187.522 Y129.922 E2288.91495
G1 X106.578 Y48.978 E2299.35231
G1 X107.464 Y48.978 E2299.43311
G1 X187.522 Y129.036 E2309.75621
G1 X187.522 Y128.150 E2309.83701
G1 X108.350 Y48.978 E2320.04585
G1 X109.236 Y48.978 E2320.12664
G1 X187.522 Y127.264 E2330.22122
G1 X187.522 Y126.378 E2330.30201
