; generated by Slic3r 1.2.9 on 2016-05-14 at 14:36:45

; external perimeters extrusion width = 0.40mm
; perimeters extrusion width = 0.48mm
; infill extrusion width = 0.48mm
; solid infill extrusion width = 0.48mm
; top infill extrusion width = 0.48mm

M107
M190 S70 ; set bed temperature
M104 S250 ; set temperature
G28 ; home all axes
G1 Z5 F5000 ; lift nozzle

M109 S250 ; wait for temperature to be reached
G21 ; set units to millimeters
G90 ; use absolute coordinates
M82 ; use absolute distances for extrusion
G92 E0
G1 Z0.350 F7800.000
G1 E-0.60000 F2400.00000
G92 E0
G1 X74.915 Y75.753 F7800.000
G1 E0.60000 F2400.00000
G1 X76.668 Y74.274 E0.80854 F1800.000
G1 X78.820 Y73.481 E1.01708
G1 X80.000 Y73.375 E1.12479
G1 X120.000 Y73.375 E4.76198
G1 X122.259 Y73.772 E4.97052
G1 X124.247 Y74.915 E5.17906 F1800.000
G1 X125.726 Y76.668 E5.38760
G1 X126.519 Y78.820 E5.59615
G1 X126.625 Y80.000 E5.70386
G1 X126.625 Y120.000 E9.34104
G1 X126.228 Y122.259 E9.54958
G1 X125.085 Y124.247 E9.75812
G1 X123.332 Y125.726 E9.96667
G1 X121.180 Y126.519 E10.17521
G1 X120.000 Y126.625 E10.28292
G1 X80.000 Y126.625 E13.92010
G1 X77.741 Y126.228 E14.12864
G1 X75.753 Y125.085 E14.33719
G1 X74.274 Y123.332 E14.54573
G1 X73.481 Y121.180 E14.75427
G1 X73.375 Y120.000 E14.86198
G1 X73.375 Y80.000 E18.49916
G1 X73.772 Y77.741 E18.70770
G1 X74.886 Y75.805 E18.91079
G1 E18.31079 F2400.00000
G92 E0
G1 X104.238 Y92.238 F7800.000
G1 E0.60000 F2400.00000
G1 X102.294 Y93.538 E0.81266 F1800.000
G1 X100.000 Y93.994 E1.02532
G1 X97.706 Y93.538 E1.23798
G1 X95.762 Y92.238 E1.45064
G1 X94.462 Y90.294 E1.66330
G1 X94.006 Y88.000 E1.87596
G1 X94.462 Y85.706 E2.08862
G1 X95.762 Y83.762 E2.30128
G1 X97.706 Y82.462 E2.51394
G1 X99.642 Y82.077 E2.69345
G1 X100.000 Y82.006 E2.72660 F1800.000
G1 X102.294 Y82.462 E2.93926
G1 X104.238 Y83.762 E3.15192
G1 X105.538 Y85.706 E3.36458
G1 X105.994 Y88.000 E3.57724
G1 X105.538 Y90.294 E3.78990
G1 X104.272 Y92.188 E3.99711
G1 X103.788 Y91.788 F7800.000
G1 X102.050 Y92.949 E4.18716 F1800.000
G1 X100.000 Y93.357 E4.37722
G1 X97.950 Y92.949 E4.56727
G1 X96.212 Y91.788 E4.75733
G1 X95.051 Y90.050 E4.94738
G1 X94.643 Y88.000 E5.13744
G1 X95.051 Y85.950 E5.32749
G1 X96.212 Y84.212 E5.51755
G1 X97.950 Y83.051 E5.70760
G1 X99.764 Y82.690 E5.87581
G1 X100.000 Y82.643 E5.89766 F1800.000
G1 X102.050 Y83.051 E6.08771
G1 X103.788 Y84.212 E6.27777
G1 X104.949 Y85.950 E6.46782
G1 X105.357 Y88.000 E6.65788
G1 X104.949 Y90.050 E6.84794
G1 X103.821 Y91.738 E7.03254
G1 X103.866 Y92.180 F7800.000
G1 E6.43254 F2400.00000
G92 E0
G1 X102.526 Y81.866 F7800.000
G1 E0.60000 F2400.00000
G1 X102.607 Y81.600 E0.62528 F1800.000
G1 X118.400 Y81.600 E2.06138
G1 X118.400 Y118.400 E5.40763
G1 X81.600 Y118.400 E8.75388
G1 X81.600 Y81.600 E12.10013
G1 X97.393 Y81.600 E13.53623
G1 X97.474 Y81.866 E13.56151
G1 X95.311 Y83.311 E13.79805
G1 X93.874 Y85.462 E14.03331
G1 X93.369 Y88.000 E14.26858
G1 X93.874 Y90.538 E14.50385
G1 X95.311 Y92.689 E14.73911
G1 X97.462 Y94.126 E14.97437
G1 X100.000 Y94.631 E15.20964
G1 X102.538 Y94.126 E15.44491
G1 X104.689 Y92.689 E15.68017
G1 X106.126 Y90.538 E15.91543
G1 X106.631 Y88.000 E16.15070
G1 X106.126 Y85.462 E16.38597
G1 X104.689 Y83.311 E16.62123
G1 X102.576 Y81.899 E16.85231
G1 X119.025 Y80.975 F7800.000
G1 X119.025 Y119.025 E20.31220 F1800.000
G1 X80.975 Y119.025 E23.77209
G1 X80.975 Y80.975 E27.23198
G1 X118.965 Y80.975 E30.68642
G1 X119.650 Y80.350 F7800.000
G1 X119.650 Y119.650 E34.25995 F1800.000
G1 X80.350 Y119.650 E37.83348
G1 X80.350 Y80.350 E41.40702
G1 X119.590 Y80.350 E44.97509
G1 X119.450 Y80.696 F7800.000
G1 X118.022 Y82.283 F7800.000
G1 X117.717 Y81.978 E45.01476 F1800.000
G1 X116.823 Y81.978 E45.09690
G1 X118.022 Y83.177 E45.25272
G1 X118.022 Y84.070 E45.33486
G1 X115.930 Y81.978 E45.60684
G1 X115.036 Y81.978 E45.68898
G1 X118.022 Y84.964 E46.07712
G1 X118.022 Y85.857 E46.15925
G1 X114.143 Y81.978 E46.66355
G1 X113.249 Y81.978 E46.74569
G1 X118.022 Y86.751 E47.36614
G1 X118.022 Y87.644 E47.44828
G1 X112.356 Y81.978 E48.18489
G1 X111.462 Y81.978 E48.26703
G1 X118.022 Y88.538 E49.11980
G1 X118.022 Y89.431 E49.20193
G1 X110.569 Y81.978 E50.17086
G1 X109.675 Y81.978 E50.25300
G1 X118.022 Y90.325 E51.33808
G1 X118.022 Y91.218 E51.42022
G1 X108.782 Y81.978 E52.62146
G1 X107.889 Y81.978 E52.70360
G1 X118.022 Y92.111 E54.02100
G1 X118.022 Y93.005 E54.10314
G1 X106.995 Y81.978 E55.53669
G1 X106.102 Y81.978 E55.61883
G1 X118.022 Y93.898 E57.16855
G1 X118.022 Y94.792 E57.25068
G1 X105.208 Y81.978 E58.91655
G1 X104.315 Y81.978 E58.99869
G1 X118.022 Y95.685 E60.78072
G1 X118.022 Y96.579 E60.86286
G1 X106.278 Y84.835 E62.38965
G1 X106.673 Y86.123 E62.51352
G1 X118.022 Y97.472 E63.98898
G1 X118.022 Y98.366 E64.07111
G1 X106.895 Y87.239 E65.51773
G1 X106.955 Y88.193 E65.60559
G1 X118.022 Y99.259 E67.04435
G1 X118.022 Y100.153 E67.12649
G1 X106.807 Y88.938 E68.58452
G1 X106.659 Y89.683 E68.65437
G1 X118.022 Y101.046 E70.13168
G1 X118.022 Y101.939 E70.21382
G1 X106.510 Y90.428 E71.71039
G1 X106.202 Y91.013 E71.77120
G1 X118.022 Y102.833 E73.30785
G1 X118.022 Y103.726 E73.38999
G1 X105.844 Y91.549 E74.97317
G1 X105.486 Y92.085 E75.03238
G1 X118.022 Y104.620 E76.66210
G1 X118.022 Y105.513 E76.74423
G1 X105.128 Y92.620 E78.42047
G1 X104.694 Y93.079 E78.47857
G1 X118.022 Y106.407 E80.21129
G1 X118.022 Y107.300 E80.29343
G1 X104.158 Y93.437 E82.09578
G1 X103.623 Y93.795 E82.15500
G1 X118.022 Y108.194 E84.02698
G1 X118.022 Y109.087 E84.10912
G1 X103.087 Y94.153 E86.05073
G1 X102.531 Y94.490 E86.11053
G1 X118.022 Y109.981 E88.12446
G1 X118.022 Y110.874 E88.20660
G1 X101.786 Y94.638 E90.31742
G1 X101.041 Y94.786 E90.38727
G1 X118.022 Y111.767 E92.59497
G1 X118.022 Y112.661 E92.67711
G1 X100.295 Y94.935 E94.98170
G1 X99.392 Y94.925 E95.06470
G1 X118.022 Y113.554 E97.48667
G1 X118.022 Y114.448 E97.56880
G1 X98.277 Y94.703 E100.13577
G1 X97.162 Y94.482 E100.24031
G1 X118.022 Y115.341 E102.95227
G1 X118.022 Y116.235 E103.03441
G1 X83.765 Y81.978 E107.48806
G1 X84.659 Y81.978 E107.57020
G1 X93.518 Y90.838 E108.72205
G1 X93.297 Y89.723 E108.82659
G1 X85.552 Y81.978 E109.83344
G1 X86.446 Y81.978 E109.91557
G1 X93.075 Y88.608 E110.77743
G1 X93.065 Y87.705 E110.86043
G1 X87.339 Y81.978 E111.60490
G1 X88.233 Y81.978 E111.68704
G1 X93.214 Y86.959 E112.33463
G1 X93.362 Y86.214 E112.40448
G1 X89.126 Y81.978 E112.95519
G1 X90.019 Y81.978 E113.03732
G1 X93.510 Y85.469 E113.49114
G1 X93.847 Y84.913 E113.55094
G1 X90.913 Y81.978 E113.93244
G1 X91.806 Y81.978 E114.01458
G1 X94.205 Y84.377 E114.32645
G1 X94.563 Y83.842 E114.38566
G1 X92.700 Y81.978 E114.62790
G1 X93.593 Y81.978 E114.71004
G1 X94.921 Y83.306 E114.88265
G1 X95.380 Y82.872 E114.94075
G1 X94.487 Y81.978 E115.05687
G1 X95.380 Y81.978 E115.13901
G1 X95.915 Y82.514 E115.20860
G1 X82.872 Y81.978 F7800.000
G1 X118.022 Y117.128 E119.77841 F1800.000
G1 X118.002 Y118.002 E119.85873
G1 X81.998 Y81.998 E124.53949
G1 X81.978 Y82.872 E124.61981
G1 X117.128 Y118.022 E129.18962
G1 X116.235 Y118.022 E129.27176
G1 X81.978 Y83.765 E133.72540
G1 X81.978 Y84.659 E133.80754
G1 X115.341 Y118.022 E138.14503
G1 X114.448 Y118.022 E138.22717
G1 X81.978 Y85.552 E142.44850
G1 X81.978 Y86.446 E142.53063
G1 X113.554 Y118.022 E146.63581
G1 X112.661 Y118.022 E146.71794
G1 X81.978 Y87.339 E150.70696
G1 X81.978 Y88.233 E150.78910
G1 X111.767 Y118.022 E154.66196
G1 X110.874 Y118.022 E154.74409
G1 X81.978 Y89.126 E158.50080
G1 X81.978 Y90.019 E158.58293
G1 X109.981 Y118.022 E162.22348
G1 X109.087 Y118.022 E162.30561
G1 X81.978 Y90.913 E165.83000
G1 X81.978 Y91.806 E165.91214
G1 X108.194 Y118.022 E169.32037
G1 X107.300 Y118.022 E169.40250
G1 X81.978 Y92.700 E172.69458
G1 X81.978 Y93.593 E172.77671
G1 X106.407 Y118.022 E175.95263
G1 X105.513 Y118.022 E176.03476
G1 X81.978 Y94.487 E179.09452
G1 X81.978 Y95.380 E179.17666
G1 X104.620 Y118.022 E182.12026
G1 X103.726 Y118.022 E182.20239
G1 X81.978 Y96.274 E185.02984
G1 X81.978 Y97.167 E185.11197
G1 X102.833 Y118.022 E187.82326
G1 X101.939 Y118.022 E187.90539
G1 X81.978 Y98.061 E190.50052
G1 X81.978 Y98.954 E190.58266
G1 X101.046 Y118.022 E193.06163
G1 X100.153 Y118.022 E193.14376
G1 X81.978 Y99.847 E195.50657
G1 X81.978 Y100.741 E195.58871
G1 X99.259 Y118.022 E197.83537
G1 X98.366 Y118.022 E197.91750
G1 X81.978 Y101.634 E200.04800
G1 X81.978 Y102.528 E200.13013
G1 X97.472 Y118.022 E202.14447
G1 X96.579 Y118.022 E202.22661
G1 X81.978 Y103.421 E204.12479
G1 X81.978 Y104.315 E204.20693
G1 X95.685 Y118.022 E205.98895
G1 X94.792 Y118.022 E206.07109
G1 X81.978 Y105.208 E207.73696
G1 X81.978 Y106.102 E207.81909
G1 X93.898 Y118.022 E209.36880
G1 X93.005 Y118.022 E209.45094
G1 X81.978 Y106.995 E210.88449
G1 X81.978 Y107.889 E210.96663
G1 X92.111 Y118.022 E212.28402
G1 X91.218 Y118.022 E212.36616
G1 X81.978 Y108.782 E213.56740
G1 X81.978 Y109.675 E213.64953
G1 X90.325 Y118.022 E214.73461
G1 X89.431 Y118.022 E214.81675
G1 X81.978 Y110.569 E215.78567
G1 X81.978 Y111.462 E215.86781
G1 X88.538 Y118.022 E216.72057
G1 X87.644 Y118.022 E216.80271
G1 X81.978 Y112.356 E217.53932
G1 X81.978 Y113.249 E217.62145
G1 X86.751 Y118.022 E218.24190
G1 X85.857 Y118.022 E218.32404
G1 X81.978 Y114.143 E218.82833
G1 X81.978 Y115.036 E218.91047
G1 X84.964 Y118.022 E219.29860
G1 X84.070 Y118.022 E219.38074
G1 X81.978 Y115.930 E219.65271
G1 X81.978 Y116.823 E219.73485
G1 X83.177 Y118.022 E219.89067
G1 X82.283 Y118.022 E219.97281
G1 X81.978 Y117.717 E220.01247
G1 E219.41247 F2400.00000
G92 E0
G1 X97.752 Y81.707 F7800.000
G1 E0.60000 F2400.00000
G1 X99.961 Y81.489 E1.02780 F1800.000
G1 X102.248 Y81.707 E1.47071
G1 Z0.650 F7800.000
G1 X105.558 Y85.698 F7800.000
G1 X106.016 Y88.000 E1.59334 F900.000
G1 X105.558 Y90.302 E1.71597
G1 X104.254 Y92.254 E1.83860
G1 X102.302 Y93.558 E1.96123
G1 X100.000 Y94.016 E2.08386
G1 X97.698 Y93.558 E2.20648
G1 X95.746 Y92.254 E2.32911
G1 X94.442 Y90.302 E2.45174
G1 X93.984 Y88.000 E2.57437
G1 X94.442 Y85.698 E2.69700
G1 X95.746 Y83.746 E2.81963
G1 X97.698 Y82.442 E2.94226
G1 X100.000 Y81.984 E3.06488 F900.000
G1 X102.302 Y82.442 E3.18751
G1 X104.254 Y83.746 E3.31014
G1 X105.524 Y85.648 E3.42963
G1 X105.163 Y85.861 F7800.000
G1 X105.589 Y88.000 E3.54356 F900.000
G1 X105.163 Y90.139 E3.65748
G1 X103.952 Y91.952 E3.77140
G1 X102.139 Y93.163 E3.88532
G1 X100.000 Y93.589 E3.99925
G1 X97.861 Y93.163 E4.11317
G1 X96.048 Y91.952 E4.22709
G1 X94.837 Y90.139 E4.34101
G1 X94.411 Y88.000 E4.45493
G1 X94.837 Y85.861 E4.56886
G1 X96.048 Y84.048 E4.68278
G1 X97.861 Y82.837 E4.79670
G1 X100.000 Y82.411 E4.91062 F900.000
G1 X102.139 Y82.837 E5.02455
G1 X103.952 Y84.048 E5.13847
G1 X105.130 Y85.811 E5.24926
G1 X104.808 Y86.009 F7800.000
G1 X105.204 Y88.000 E5.33425 F900.000
G1 X104.808 Y89.991 E5.41925
G1 X103.680 Y91.680 E5.50424
G1 X101.991 Y92.808 E5.58924
G1 X100.000 Y93.204 E5.67424
G1 X98.009 Y92.808 E5.75923
G1 X96.320 Y91.680 E5.84423
G1 X95.192 Y89.991 E5.92922
G1 X94.796 Y88.000 E6.01422
G1 X95.192 Y86.009 E6.09921
G1 X96.320 Y84.320 E6.18421
G1 X98.009 Y83.192 E6.26921
G1 X100.000 Y82.796 E6.35420 F900.000
G1 X101.991 Y83.192 E6.43920
G1 X103.680 Y84.320 E6.52419
G1 X104.774 Y85.959 E6.60668
G1 X105.200 Y86.087 F7800.000
G1 X119.004 Y80.996 F7800.000
G1 X119.004 Y119.004 E8.59239 F3600.000
G1 X80.996 Y119.004 E10.57810
G1 X80.996 Y80.996 E12.56381
G1 X118.944 Y80.996 E14.54639
G1 X119.423 Y80.577 F7800.000
G1 X119.423 Y119.423 E16.57587 F3600.000
G1 X80.577 Y119.423 E18.60535
G1 X80.577 Y80.577 E20.63482
G1 X119.363 Y80.577 E22.66117
G1 X119.800 Y80.200 F7800.000
G1 X119.800 Y119.800 E24.31884 F1800.000
G1 X80.200 Y119.800 E25.97651
G1 X80.200 Y80.200 E27.63417
G1 X119.740 Y80.200 E29.28933
G1 X119.600 Y80.546 F7800.000
G1 X100.000 Y81.206 F7800.000
G1 X100.000 Y81.771 E29.31886 F1200.000
G1 X99.363 Y81.243 F7800.000
G1 X98.619 Y81.988 E29.37427 F1200.000
G1 X98.766 Y81.243 E29.41421
G1 X97.874 Y82.136 E29.48064
G1 X98.169 Y81.243 F7800.000
G1 X96.635 Y82.778 E29.59487 F1200.000
G1 X96.379 Y81.243 F7800.000
G1 X81.243 Y96.379 E30.72140 F1200.000
G1 X81.243 Y96.976 E30.75281
G1 X96.976 Y81.243 E31.92375
G1 X97.573 Y81.243 E31.95516
G1 X81.243 Y97.573 E33.17052
G1 X81.243 Y98.169 E33.20193
G1 X94.778 Y84.635 E34.20928
G1 X94.136 Y85.874 F7800.000
G1 X81.243 Y98.766 E35.16884 F1200.000
G1 X81.243 Y99.363 E35.20025
G1 X93.988 Y86.619 E36.14879
G1 X93.840 Y87.363 E36.18876
G1 X81.243 Y99.960 E37.12627
G1 X81.243 Y100.556 E37.15767
G1 X93.757 Y88.043 E38.08902
G1 X93.856 Y88.541 E38.11573
G1 X81.243 Y101.153 E39.05445
G1 X81.243 Y101.750 E39.08585
G1 X93.955 Y89.038 E40.03194
G1 X94.054 Y89.536 E40.05865
G1 X81.243 Y102.347 E41.01210
G1 X81.243 Y102.943 E41.04351
G1 X94.153 Y90.034 E42.00433
G1 X94.304 Y90.479 E42.02908
G1 X81.243 Y103.540 E43.00119
G1 X81.243 Y104.137 E43.03260
G1 X94.544 Y90.837 E44.02250
G1 X94.783 Y91.194 E44.04514
G1 X81.243 Y104.734 E45.05283
G1 X81.243 Y105.330 E45.08424
G1 X95.022 Y91.552 E46.10972
G1 X95.261 Y91.910 E46.13236
G1 X81.243 Y105.927 E47.17564
G1 X81.243 Y106.524 E47.20704
G1 X95.500 Y92.267 E48.26810
G1 X95.811 Y92.553 E48.29033
G1 X81.243 Y107.120 E49.37457
G1 X81.243 Y107.717 E49.40597
G1 X96.169 Y92.792 E50.51683
G1 X96.526 Y93.031 E50.53948
G1 X81.243 Y108.314 E51.67696
G1 X81.243 Y108.911 E51.70836
G1 X96.884 Y93.270 E52.87247
G1 X97.242 Y93.509 E52.89511
G1 X81.243 Y109.507 E54.08584
G1 X81.243 Y110.104 E54.11725
G1 X97.600 Y93.748 E55.33460
G1 X98.075 Y93.869 E55.36044
G1 X81.243 Y110.701 E56.61320
G1 X81.243 Y111.298 E56.64460
G1 X98.573 Y93.968 E57.93441
G1 X99.071 Y94.067 E57.96112
G1 X81.243 Y111.894 E59.28797
G1 X81.243 Y112.491 E59.31937
G1 X99.568 Y94.166 E60.68327
G1 X100.066 Y94.265 E60.70998
G1 X81.243 Y113.088 E62.11092
G1 X81.243 Y113.684 E62.14233
G1 X100.800 Y94.128 E63.59787
G1 X101.545 Y93.980 E63.63784
G1 X81.243 Y114.281 E65.14882
G1 X81.243 Y114.878 E65.18023
G1 X102.290 Y93.832 E66.74666
G1 X103.759 Y92.959 F7800.000
G1 X81.243 Y115.475 E68.42247 F1200.000
G1 X81.243 Y116.071 E68.45388
G1 X116.071 Y81.243 E71.04605
G1 X116.668 Y81.243 E71.07745
G1 X81.243 Y116.668 E73.71404
G1 X81.243 Y117.265 E73.74544
G1 X117.265 Y81.243 E76.42644
G1 X117.862 Y81.243 E76.45785
G1 X81.243 Y117.862 E79.18326
G1 X81.243 Y118.458 E79.21466
G1 X118.458 Y81.243 E81.98449
G1 X118.757 Y81.542 E82.00670
G1 X81.542 Y118.757 E84.77652
G1 X82.138 Y118.757 E84.80793
G1 X118.757 Y82.138 E87.53334
G1 X118.757 Y82.735 E87.56474
G1 X82.735 Y118.757 E90.24574
G1 X83.332 Y118.757 E90.27715
G1 X118.757 Y83.332 E92.91374
G1 X118.757 Y83.929 E92.94514
G1 X83.929 Y118.757 E95.53731
G1 X84.525 Y118.757 E95.56872
G1 X118.757 Y84.525 E98.11648
G1 X118.757 Y85.122 E98.14788
G1 X85.122 Y118.757 E100.65123
G1 X85.719 Y118.757 E100.68263
G1 X118.757 Y85.719 E103.14157
G1 X118.757 Y86.316 E103.17297
G1 X86.316 Y118.757 E105.58749
G1 X86.912 Y118.757 E105.61890
G1 X118.757 Y86.912 E107.98900
G1 X118.757 Y87.509 E108.02041
G1 X87.509 Y118.757 E110.34610
G1 X88.106 Y118.757 E110.37751
G1 X118.757 Y88.106 E112.65879
G1 X118.757 Y88.702 E112.69019
G1 X88.702 Y118.757 E114.92706
G1 X89.299 Y118.757 E114.95846
G1 X118.757 Y89.299 E117.15092
G1 X118.757 Y89.896 E117.18232
G1 X89.896 Y118.757 E119.33036
G1 X90.493 Y118.757 E119.36177
G1 X118.757 Y90.493 E121.46539
G1 X118.757 Y91.089 E121.49680
G1 X91.089 Y118.757 E123.55601
G1 X91.686 Y118.757 E123.58742
G1 X118.757 Y91.686 E125.60222
G1 X118.757 Y92.283 E125.63362
G1 X92.283 Y118.757 E127.60401
G1 X92.880 Y118.757 E127.63541
G1 X118.757 Y92.880 E129.56139
G1 X118.757 Y93.476 E129.59279
G1 X93.476 Y118.757 E131.47435
G1 X94.073 Y118.757 E131.50576
G1 X118.757 Y94.073 E133.34291
G1 X118.757 Y94.670 E133.37431
G1 X94.670 Y118.757 E135.16705
G1 X95.266 Y118.757 E135.19845
G1 X118.757 Y95.266 E136.94677
G1 X118.757 Y95.863 E136.97818
G1 X95.863 Y118.757 E138.68208
G1 X96.460 Y118.757 E138.71349
G1 X118.757 Y96.460 E140.37298
G1 X118.757 Y97.057 E140.40439
G1 X97.057 Y118.757 E142.01947
G1 X97.653 Y118.757 E142.05088
G1 X118.757 Y97.653 E143.62154
G1 X118.757 Y98.250 E143.65295
G1 X98.250 Y118.757 E145.17920
G1 X98.847 Y118.757 E145.21061
G1 X118.757 Y98.847 E146.69245
G1 X118.757 Y99.444 E146.72385
